Pods/ProtonCore-UIFoundations/libraries/UIFoundations/Sources/Assets.xcassets/Images/IconSet/ic-language.imageset/ic-language.svg

<svg width="24" height="24" viewBox="0 0 24 24" fill="none" xmlns="http://www.w3.org/2000/svg">
<path fill-rule="evenodd" clip-rule="evenodd" d="M13.6284 16.5099H14.25H21C21.8276 16.5099 22.5 15.8384 22.5 15.0081V4.5018C22.5 3.67153 21.8276 3 21 3H3C2.17242 3 1.5 3.67153 1.5 4.5018V15.0081C1.5 15.8384 2.17242 16.5099 3 16.5099H9H10.5V18.0099V19.6402L13.189 16.9496L13.6284 16.5099ZM10.5 21.7621L10.484 21.7782L10.3037 21.9586L9.92184 22.3407C9.58166 22.681 9 22.44 9 21.9586V21.4194V21.1638V21.1411V19.5099V18.0099H7.5H3C1.34315 18.0099 0 16.6659 0 15.0081V4.5018C0 2.84395 1.34315 1.5 3 1.5H21C22.6569 1.5 24 2.84395 24 4.5018V15.0081C24 16.6659 22.6569 18.0099 21 18.0099H14.25L10.5 21.7621ZM6.75062 5.25C7.05729 5.25002 7.33306 5.43675 7.44694 5.7215L10.4464 13.2215C10.6002 13.6061 10.4131 14.0426 10.0285 14.1964C9.6439 14.3502 9.20743 14.1631 9.05362 13.7785L8.34236 12H5.15791L4.44634 13.7786C4.29248 14.1632 3.85599 14.3502 3.47141 14.1963C3.08683 14.0425 2.8998 13.606 3.05366 13.2214L6.05423 5.72141C6.16814 5.43668 6.44394 5.24998 6.75062 5.25ZM5.75802 10.5H7.74247L6.75043 8.01944L5.75802 10.5ZM16.4999 5.25C16.4999 4.83579 16.1641 4.5 15.7499 4.5C15.3357 4.5 14.9999 4.83579 14.9999 5.25V6H12.7499C12.3357 6 11.9999 6.33579 11.9999 6.75C11.9999 7.16421 12.3357 7.5 12.7499 7.5H15.7499H17.1939C17.0321 8.5704 16.5252 9.54221 15.7502 10.4086C15.4527 10.0769 15.1945 9.72982 14.9804 9.36805C14.7695 9.01157 14.3095 8.8936 13.953 9.10454C13.5965 9.31549 13.4785 9.77547 13.6895 10.132C13.9621 10.5927 14.2863 11.0257 14.6528 11.4317C14.0025 11.9454 13.249 12.4119 12.4145 12.8292C12.044 13.0144 11.8938 13.4649 12.0791 13.8354C12.2643 14.2059 12.7148 14.3561 13.0853 14.1708C14.0431 13.6919 14.9515 13.1264 15.749 12.4718C16.5439 13.1244 17.4513 13.6892 18.4145 14.1708C18.785 14.3561 19.2355 14.2059 19.4207 13.8354C19.606 13.4649 19.4558 13.0144 19.0853 12.8292C18.2549 12.414 17.5003 11.9466 16.8475 11.4306C17.8484 10.3234 18.5362 9.01595 18.7079 7.5H19.4999C19.9141 7.5 20.2499 7.16421 20.2499 6.75C20.2499 6.33579 19.9141 6 19.4999 6H17.9999H16.4999V5.25Z" fill="#0C0C14"/>
</svg>

<svg xmlns="http://www.w3.org/2000/svg" width="24" height="24" viewBox="0 0 24 24">
  <g class="ic-language">
    <path fill-rule="evenodd" d="M13.628 16.51H21a1.5 1.5 0 0 0 1.5-1.502V4.502A1.5 1.5 0 0 0 21 3H3a1.5 1.5 0 0 0-1.5 1.502v10.506A1.5 1.5 0 0 0 3 16.51h7.5v3.13l2.689-2.69.44-.44ZM10.5 21.762l-.016.016-.18.18-.382.383A.54.54 0 0 1 9 21.959V18.01H3a3 3 0 0 1-3-3.002V4.502A3 3 0 0 1 3 1.5h18a3 3 0 0 1 3 3.002v10.506a3 3 0 0 1-3 3.002h-6.75l-3.75 3.752ZM6.75 5.25a.75.75 0 0 1 .697.471l3 7.5a.75.75 0 0 1-1.393.557L8.342 12H5.158l-.712 1.779a.75.75 0 1 1-1.392-.558l3-7.5a.75.75 0 0 1 .697-.471Zm-.992 5.25h1.984L6.75 8.02l-.992 2.48ZM16.5 5.25a.75.75 0 0 0-1.5 0V6h-2.25a.75.75 0 0 0 0 1.5h4.444c-.162 1.07-.669 2.042-1.444 2.909a6.59 6.59 0 0 1-.77-1.041.75.75 0 1 0-1.29.764c.272.46.596.894.963 1.3-.65.513-1.404.98-2.239 1.397a.75.75 0 1 0 .671 1.342 14.242 14.242 0 0 0 2.664-1.7 14.235 14.235 0 0 0 2.665 1.7.75.75 0 1 0 .671-1.342 12.948 12.948 0 0 1-2.238-1.398c1.001-1.108 1.69-2.415 1.86-3.931h.793a.75.75 0 0 0 0-1.5h-3v-.75Z" class="Icon"/>
  </g>
</svg>
